!! 00047] TT[KA
!! NN
!!!OTL: Xin saosao
!!!ARE: Asia, China,ÿHunan, Jiahe
!! Ethnic Group: Han
!! I, 513, 1)
!!!SCT: C0121
!!!YEM: Copyright 1995, estate of Helmut Schaffrath.
**kern
*ICvox
*Ivox
*M2/4
*k[b-]
*F:
{8a
8cc
8a
8cc
=1
4a
8g
8f
=2
8g
4f
8f}
=3
{8d
8f
8d
8f
=4
4d
8g
8f
=5
8f
4d
8f}
=6
{8g
8f
8g
8a
=7
4d
8g
8f
=8
8f
8d
4r}
==
!!!AGN: Xiaodiao, Fengsuge, Banjiage. Xin minge
!! neues Volkslied
!!!ONB: ESAC (Essen Associative Code) Database: CHINA
!!!AMT: simple duple
!!!AIN: vox
!!!EED: Helmut Schaffrath
!!!EEV: 1.0
*-
